apps/www/public/images/logos/publicity/shotgun.svg

<svg width="134" height="60" viewBox="0 0 134 60" fill="none" xmlns="http://www.w3.org/2000/svg">
<path fill-rule="evenodd" clip-rule="evenodd" d="M20.3398 30.4196L24.4642 24.4697C24.6547 24.1972 24.7569 23.8726 24.7569 23.5401C24.7569 23.2075 24.6547 22.883 24.4642 22.6104C24.2636 22.3215 23.9956 22.0858 23.6834 21.9238C23.3712 21.7618 23.0242 21.6784 22.6724 21.6807H12.7672C12.4224 21.6805 12.0826 21.7633 11.7767 21.9222C11.4707 22.0811 11.2074 22.3114 11.0093 22.5935C10.821 22.867 10.7202 23.1911 10.7202 23.5232C10.7202 23.8552 10.821 24.1793 11.0093 24.4528L21.5568 39.784H13.8997L16.5873 35.8963L15.066 33.665L11.0093 39.5304C10.821 39.8039 10.7202 40.1281 10.7202 40.4601C10.7202 40.7921 10.821 41.1163 11.0093 41.3898C11.2056 41.675 11.468 41.9086 11.7741 42.0704C12.0802 42.2323 12.4209 42.3178 12.7672 42.3195H22.6724C23.0187 42.3178 23.3594 42.2323 23.6655 42.0704C23.9716 41.9086 24.234 41.675 24.4304 41.3898C24.6186 41.1163 24.7194 40.7921 24.7194 40.4601C24.7194 40.1281 24.6186 39.8039 24.4304 39.5304L13.8997 24.2331H21.5737L18.8185 28.1884L20.3398 30.4196ZM36.5668 26.5657C38.4262 26.5657 39.8629 26.8362 40.8771 27.394C41.8913 27.9518 42.5167 28.8645 42.7703 30.1661H40.0827C40.0306 29.8684 39.8973 29.5909 39.6975 29.3642C39.4976 29.1375 39.239 28.9704 38.9502 28.8815C38.1637 28.6634 37.3486 28.5665 36.533 28.5941C35.5188 28.5941 34.8427 28.7124 34.4539 28.9153C34.0651 29.1181 33.8792 29.4224 33.8792 29.7604C33.8792 29.9633 33.913 30.0985 33.9806 30.2337C34.0651 30.3689 34.2173 30.4703 34.4539 30.5549C34.6906 30.6394 35.0286 30.7239 35.485 30.7746C35.9414 30.8253 36.5499 30.876 37.2937 30.9098C38.3442 30.9619 39.3894 31.0918 40.4207 31.2986C41.2152 31.5014 41.8237 31.8057 42.1956 32.2452C42.5674 32.6678 42.7534 33.2256 42.7534 33.9355C42.7534 35.0342 42.3139 35.8963 41.4349 36.5048C40.556 37.1302 39.1699 37.4344 37.3106 37.4344C36.6006 37.4344 35.9583 37.4006 35.4005 37.333C34.8788 37.275 34.3637 37.1674 33.8623 37.0119C33.064 36.7948 32.347 36.3481 31.8001 35.7272C31.2828 35.0724 30.9345 34.3003 30.7859 33.4791H33.5243C33.6933 34.189 34.1159 34.6623 34.7751 34.9328C35.4343 35.1863 36.2964 35.3216 37.3613 35.3216C38.3416 35.3216 39.0516 35.2201 39.5249 35.0342C39.9813 34.8483 40.2179 34.5271 40.2179 34.1045C40.2179 33.9355 40.1841 33.8003 40.1334 33.6819C40.0783 33.5637 39.9903 33.4639 39.8798 33.3946C39.6263 33.2425 39.2037 33.141 38.629 33.0903C38.0374 33.0227 37.1922 32.972 36.0935 32.9213C35.1815 32.8591 34.2766 32.7177 33.389 32.4987C32.7801 32.3525 32.2311 32.0219 31.817 31.5521C31.479 31.1296 31.3099 30.538 31.3099 29.828C31.3022 29.3525 31.42 28.8833 31.6515 28.4678C31.883 28.0524 32.2199 27.7053 32.6284 27.4616C33.8182 26.7818 35.1829 26.4701 36.5499 26.5657H36.5668ZM63.9837 26.5657C64.6091 26.5657 65.2007 26.6164 65.7416 26.7348C66.275 26.83 66.7965 26.9831 67.2967 27.1911C68.2482 27.5728 69.059 28.2385 69.6185 29.0975C70.1781 29.9565 70.4593 30.9671 70.4238 31.9916V32.0931C70.4235 32.6469 70.3496 33.1983 70.2041 33.7327C70.0689 34.2397 69.866 34.6792 69.5956 35.0849C69.0302 35.8773 68.2417 36.4833 67.3305 36.8259C66.2692 37.2364 65.1384 37.4373 64.0006 37.4175C63.4007 37.4207 62.8015 37.3755 62.2089 37.2823C61.6511 37.1978 61.1271 37.0457 60.6369 36.8597C59.6903 36.4879 58.9466 35.8963 58.4057 35.1187C57.8396 34.2081 57.5626 33.1473 57.6112 32.0761V32.0085C57.5596 30.9832 57.8301 29.9673 58.3848 29.1034C58.9395 28.2395 59.7506 27.5709 60.7045 27.1911C61.7414 26.7542 62.8588 26.5411 63.9837 26.5657ZM100.596 26.8193V31.3662C100.601 32.1194 100.727 32.867 100.968 33.5805C101.204 34.1214 101.559 34.5102 102.033 34.7299C102.89 35.076 103.828 35.1698 104.737 35.0004C105.001 34.9518 105.257 34.8665 105.498 34.7468C105.954 34.5271 106.292 34.1383 106.512 33.5974C106.771 32.8833 106.886 32.125 106.85 31.3662V26.8193H109.504V31.4338C109.504 32.1607 109.436 32.803 109.335 33.3946C109.232 33.9237 109.056 34.4359 108.811 34.9159C108.354 35.7948 107.695 36.4372 106.833 36.8259C105.295 37.3989 103.632 37.5507 102.016 37.2654C101.475 37.164 101.002 37.0119 100.562 36.8259C99.717 36.4372 99.0577 35.8117 98.6183 34.9159C98.1788 34.0369 97.959 32.8875 97.959 31.4338V26.8193H100.596ZM89.6765 26.5657C91.4175 26.5657 92.8205 26.87 93.9023 27.4954C94.4417 27.7972 94.9041 28.2198 95.253 28.73C95.602 29.2403 95.8281 29.8243 95.9138 30.4365H93.1247C93.0064 29.8787 92.5838 29.4562 92.0598 29.1688C91.3422 28.8544 90.56 28.7153 89.7779 28.7631C88.7525 28.695 87.734 28.9749 86.8875 29.5576C86.2113 30.0647 85.8733 30.9267 85.8733 32.0931V32.11C85.924 33.4791 86.3466 33.9693 86.8199 34.4257C87.8848 35.423 92.5838 35.9132 93.1247 33.5805H89.6089V31.5691H95.9307V33.327C95.9307 34.6792 94.6122 37.3837 90.2174 37.3837C89.6427 37.3837 87.9693 37.519 86.2283 36.7076C85.3417 36.3052 84.5898 35.6561 84.0622 34.8378C83.5347 34.0195 83.2539 33.0666 83.2533 32.0931V32.0254C83.2533 31.4507 83.3378 30.9098 83.473 30.4196C83.6036 29.9397 83.8089 29.4834 84.0816 29.0674C84.6394 28.256 85.4169 27.6306 86.3804 27.208C87.4244 26.7505 88.5536 26.5201 89.6934 26.5319L89.6765 26.5657ZM114.22 26.8193L120.711 33.8341L120.812 33.9693V26.8193H123.229V37.1302H120.812L114.22 30.0647L114.135 29.9125V37.1302H111.701V26.8193H114.22ZM82.0532 26.8193V28.8984H78.0302V37.1302H75.4441V28.8984H71.607V26.8193H82.0532ZM47.013 26.8193V30.8253H53.2333V26.8193H55.735V37.1302H53.2333V33.141H47.013V37.1302H44.4775V26.8193H47.013ZM64.0006 28.7631C62.8174 28.7631 61.8877 29.0167 61.2116 29.5407C60.5355 30.0478 60.1974 30.8929 60.1974 32.0761C60.1974 33.1749 60.5355 33.9693 61.2116 34.4764C61.8877 34.9835 62.8174 35.237 63.9837 35.237C64.3567 35.2419 64.7296 35.2193 65.0993 35.1694C65.4374 35.1187 65.7585 35.0342 66.029 34.9328C66.6037 34.7468 67.0432 34.4257 67.3474 33.9524C67.6686 33.496 67.8207 32.8706 67.8207 32.0931C67.8277 31.7233 67.7879 31.3541 67.7024 30.9943C67.6068 30.5608 67.4033 30.1585 67.1108 29.8246C66.8182 29.4907 66.4462 29.2361 66.029 29.0843C65.4712 28.8645 64.7951 28.7462 64.0006 28.7462V28.7631Z" fill="#7E7E7E"/>
</svg>

<svg xmlns="http://www.w3.org/2000/svg" width="134" height="60" fill="none" viewBox="0 0 134 60"><path fill="#7e7e7e" fill-rule="evenodd" d="m20.34 30.42 4.124-5.95a1.62 1.62 0 0 0 0-1.86 2.16 2.16 0 0 0-1.792-.93h-9.905a2.15 2.15 0 0 0-1.758.913 1.64 1.64 0 0 0 0 1.86l10.548 15.331H13.9l2.687-3.888-1.521-2.231-4.057 5.865a1.64 1.64 0 0 0 0 1.86 2.15 2.15 0 0 0 1.758.93h9.905a2.15 2.15 0 0 0 1.758-.93 1.64 1.64 0 0 0 0-1.86L13.9 24.233h7.674l-2.756 3.955zm16.227-3.854c1.86 0 3.296.27 4.31.828s1.64 1.47 1.893 2.772h-2.687a1.64 1.64 0 0 0-1.133-1.285 8 8 0 0 0-2.417-.287c-1.014 0-1.69.118-2.08.321-.388.203-.574.507-.574.845 0 .203.034.338.102.474.084.135.236.236.473.32s.575.17 1.031.22c.456.051 1.065.102 1.809.136q1.577.078 3.127.389c.794.202 1.403.507 1.775.946.371.423.557.98.557 1.69 0 1.1-.44 1.961-1.318 2.57-.879.625-2.265.93-4.124.93-.71 0-1.353-.034-1.91-.102a8.3 8.3 0 0 1-1.539-.321 4.23 4.23 0 0 1-2.062-1.285 5.1 5.1 0 0 1-1.014-2.248h2.738c.17.71.592 1.183 1.251 1.454.66.253 1.521.389 2.586.389.98 0 1.69-.102 2.164-.288.456-.186.693-.507.693-.93 0-.169-.034-.304-.085-.422a.7.7 0 0 0-.253-.287c-.254-.153-.676-.254-1.251-.305-.592-.067-1.437-.118-2.535-.169a16 16 0 0 1-2.705-.422 3.04 3.04 0 0 1-1.572-.947c-.338-.422-.507-1.014-.507-1.724a2.7 2.7 0 0 1 1.318-2.366 6.93 6.93 0 0 1 3.922-.896zm27.417 0c.625 0 1.217.05 1.758.169a7.5 7.5 0 0 1 1.555.456 4.99 4.99 0 0 1 3.127 4.8v.102c0 .554-.074 1.105-.22 1.64a4.5 4.5 0 0 1-.608 1.352 4.9 4.9 0 0 1-2.266 1.74 8.8 8.8 0 0 1-3.33.592q-.901.006-1.791-.135a7.7 7.7 0 0 1-1.572-.422 4.8 4.8 0 0 1-2.231-1.741 5.3 5.3 0 0 1-.795-3.043v-.068a4.92 4.92 0 0 1 3.094-4.817 8 8 0 0 1 3.279-.625m36.612.253v4.547c.005.753.131 1.501.372 2.215.236.54.591.93 1.065 1.149.857.346 1.795.44 2.704.27q.398-.073.761-.253c.456-.22.794-.609 1.014-1.15a5.75 5.75 0 0 0 .338-2.23v-4.548h2.654v4.615c0 .727-.068 1.369-.169 1.96a5.8 5.8 0 0 1-.524 1.522c-.457.879-1.116 1.521-1.978 1.91a9.2 9.2 0 0 1-4.817.44 7 7 0 0 1-1.454-.44 3.95 3.95 0 0 1-1.944-1.91c-.44-.88-.659-2.028-.659-3.482v-4.615zm-10.92-.253c1.742 0 3.144.304 4.226.93a4 4 0 0 1 2.012 2.94h-2.79c-.118-.557-.54-.98-1.064-1.267a4.94 4.94 0 0 0-2.282-.406 4.56 4.56 0 0 0-2.89.795c-.677.507-1.015 1.369-1.015 2.535v.017c.051 1.37.474 1.86.947 2.316 1.065.997 5.764 1.487 6.305-.846h-3.516v-2.01h6.322v1.757c0 1.352-1.319 4.057-5.714 4.057-.574 0-2.248.135-3.989-.676a5.07 5.07 0 0 1-2.975-4.615v-.068c0-.574.085-1.115.22-1.605.13-.48.336-.937.609-1.353.557-.811 1.335-1.436 2.298-1.859a8.05 8.05 0 0 1 3.313-.676zm24.544.253 6.491 7.015.101.135v-7.15h2.417V37.13h-2.417l-6.592-7.065-.085-.152v7.217h-2.434V26.82zm-32.167 0v2.08H78.03v8.231h-2.586v-8.232h-3.837V26.82zm-35.04 0v4.006h6.22V26.82h2.502V37.13h-2.502v-3.989h-6.22v3.99h-2.535V26.818zm16.988 1.944c-1.184 0-2.113.254-2.79.778q-1.013.76-1.014 2.535c0 1.099.338 1.893 1.015 2.4.676.508 1.605.761 2.772.761q.56.007 1.115-.068c.338-.05.66-.135.93-.236.575-.186 1.014-.507 1.318-.98.322-.457.474-1.082.474-1.86a4.4 4.4 0 0 0-.119-1.099 2.64 2.64 0 0 0-1.673-1.91c-.558-.22-1.234-.338-2.028-.338z" clip-rule="evenodd"/></svg>
